/* XPM */
static char *image[] = {
"48 48 319 2",
"   c None",
"00 c #f34c65",
"10 c #e1485d",
"20 c #ca4053",
"30 c #d44357",
"40 c #f24d64",
"50 c #d54458",
"60 c #da455b",
"70 c #f64d66",
"80 c #db465a",
"90 c #b93a4c",
":0 c #e3485e",
";0 c #eb4a61",
"A0 c #f14c64",
"B0 c #f34d65",
"C0 c #bc3b4d",
"D0 c #dd465c",
"E0 c #ef623d",
"F0 c #f56d32",
"G0 c #f56e31",
"H0 c #ef623e",
"I0 c #e7554c",
"J0 c #e2485c",
"K0 c #e84960",
"L0 c #f24c64",
"M0 c #e7485f",
"N0 c #f26937",
"O0 c #fd7c23",
"P0 c #f26837",
"Q0 c #e55051",
"R0 c #e7495f",
"S0 c #e74960",
"T0 c #e44f51",
"U0 c #f56e32",
"V0 c #e44f52",
"W0 c #ea4a61",
"X0 c #e94960",
"Y0 c #df475b",
"Z0 c #e6495d",
"a0 c #fe7e20",
"b0 c #ef633e",
"c0 c #e5495d",
"d0 c #e1475d",
"e0 c #c13e4f",
"f0 c #f7712d",
"g0 c #f7712e",
"h0 c #e54c59",
"i0 c #c33c4f",
"j0 c #f44d65",
"k0 c #e64d57",
"l0 c #fa7727",
"m0 c #ff8021",
"n0 c #fa762a",
"o0 c #e64d58",
"p0 c #fa7628",
"q0 c #ff9342",
"r0 c #ff9749",
"s0 c #fe994c",
"t0 c #ff994c",
"u0 c #ff9748",
"v0 c #ff9240",
"w0 c #ff8b34",
"x0 c #fa7629",
"y0 c #e84b5b",
"z0 c #df465c",
"01 c #f66f2f",
"11 c #ff882f",
"21 c #ff9e47",
"31 c #ffa840",
"41 c #ffb03b",
"51 c #eca850",
"61 c #b8818c",
"71 c #9465b8",
"81 c #8457cb",
"91 c #8f5dc0",
":1 c #a869a5",
";1 c #cb7c80",
"A1 c #f39155",
"B1 c #ff8f3a",
"C1 c #f66f30",
"D1 c #ec4b62",
"E1 c #d9445a",
"F1 c #ed5f42",
"G1 c #ff8427",
"H1 c #ff9443",
"I1 c #ffa243",
"J1 c #ffb339",
"K1 c #bc8587",
"L1 c #8559cb",
"M1 c #bf798b",
"N1 c #f99a50",
"O1 c #ee5f42",
"P1 c #d7455a",
"Q1 c #eb4e5a",
"R1 c #fd7c22",
"S1 c #ffa047",
"T1 c #ffb239",
"U1 c #feb937",
"V1 c #aa769e",
"W1 c #9e68ae",
"X1 c #f2a159",
"Y1 c #ff8526",
"Z1 c #fd7b23",
"a1 c #e84d59",
"b1 c #f64e66",
"c1 c #f1663c",
"d1 c #ff8930",
"e1 c #ffaa46",
"f1 c #ffbc37",
"g1 c #bf8784",
"h1 c #9562b9",
"i1 c #f8aa51",
"j1 c #f1643c",
"k1 c #d9455a",
"l1 c #f04e61",
"m1 c #ffae46",
"n1 c #ffce3c",
"o1 c #efad4a",
"p1 c #b37798",
"q1 c #ffa538",
"r1 c #fd7b24",
"s1 c #d34653",
"t1 c #e6485f",
"u1 c #f05a4c",
"v1 c #ffa445",
"w1 c #ffdb40",
"x1 c #ffc439",
"y1 c #bb8489",
"z1 c #f5ab49",
"02 c #ff8b23",
"12 c #e45844",
"22 c #f14f63",
"32 c #f4673a",
"42 c #fe8f38",
"52 c #ffd640",
"62 c #9767b5",
"72 c #d48b64",
"82 c #f06838",
"92 c #f44e64",
":2 c #feba43",
";2 c #ffbb37",
"A2 c #feba38",
"B2 c #8559ca",
"C2 c #c27d71",
"D2 c #ffb535",
"E2 c #f8722e",
"F2 c #f64e65",
"G2 c #fc7a24",
"H2 c #ffdb3f",
"I2 c #ffbe36",
"J2 c #fab63c",
"K2 c #7b52c1",
"L2 c #efa140",
"M2 c #fb7926",
"N2 c #fe7f22",
"O2 c #fca740",
"P2 c #ffc438",
"Q2 c #8a5cc5",
"R2 c #8156ca",
"S2 c #7f55c7",
"T2 c #8356ae",
"U2 c #eb9c43",
"V2 c #ff8f25",
"W2 c #ff801f",
"X2 c #fd7f25",
"Y2 c #f34d64",
"Z2 c #fe7f24",
"a2 c #ffcc42",
"b2 c #ffcf3b",
"c2 c #a472a4",
"d2 c #8257cc",
"e2 c #7c52c2",
"f2 c #8656a9",
"g2 c #9b6492",
"h2 c #bc7872",
"i2 c #e3944b",
"j2 c #feb435",
"k2 c #ffb635",
"l2 c #ff9e2c",
"m2 c #fc7c2b",
"n2 c #ef4b63",
"o2 c #fd7e2b",
"p2 c #fc832f",
"q2 c #ffdd3f",
"r2 c #ffbe37",
"s2 c #d0946f",
"t2 c #8054b9",
"u2 c #e4964b",
"v2 c #ffb936",
"w2 c #ffac30",
"x2 c #ff8120",
"y2 c #fa7b31",
"z2 c #ed4b62",
"03 c #fa7836",
"13 c #f98237",
"23 c #ffd33c",
"33 c #9566b6",
"43 c #f0a54e",
"53 c #ff9c2d",
"63 c #ff8723",
"73 c #ff811f",
"83 c #ff8421",
"93 c #ff8f26",
":3 c #ffa22d",
";3 c #ffb434",
"A3 c #ffa02c",
"B3 c #fb8034",
"C3 c #f97147",
"D3 c #f78239",
"E3 c #fdce3e",
"F3 c #fdb839",
"G3 c #e6a655",
"H3 c #885bc7",
"I3 c #8558ca",
"J3 c #d28279",
"K3 c #f79352",
"L3 c #ff8c36",
"M3 c #ff9025",
"N3 c #ffa52e",
"O3 c #ffb634",
"P3 c #ffb835",
"Q3 c #ffb133",
"R3 c #ff9e2b",
"S3 c #ff8521",
"T3 c #f9645a",
"U3 c #f7873b",
"V3 c #e1b45e",
"W3 c #e8a852",
"X3 c #ffba36",
"Y3 c #dfa15d",
"Z3 c #8c5ec3",
"a3 c #8859c7",
"b3 c #c27888",
"c3 c #fb934a",
"d3 c #ff8428",
"e3 c #ff8529",
"f3 c #f34c64",
"g3 c #f75165",
"h3 c #fa894a",
"i3 c #bd968a",
"j3 c #a370a6",
"k3 c #c78d7a",
"l3 c #cb9175",
"m3 c #9263bb",
"n3 c #9861b6",
"o3 c #eb8d5d",
"p3 c #ff872d",
"q3 c #fd8c36",
"r3 c #f57157",
"s3 c #fedd41",
"t3 c #bb948d",
"u3 c #8a5ac4",
"v3 c #dc856d",
"w3 c #ff8e38",
"x3 c #ff8224",
"y3 c #f54d65",
"z3 c #ee4c62",
"04 c #d7b36d",
"14 c #9469ba",
"24 c #8457cd",
"34 c #ff8a34",
"44 c #ff9545",
"54 c #ff862b",
"64 c #ff8223",
"74 c #ff8d38",
"84 c #f74e66",
"94 c #fcdb43",
":4 c #d5b06f",
";4 c #ae869b",
"A4 c #966cb8",
"B4 c #885dc7",
"C4 c #885cc8",
"D4 c #8357cd",
"E4 c #8358cc",
"F4 c #ff7714",
"G4 c #ff852b",
"H4 c #ff903c",
"I4 c #ff9546",
"J4 c #ff9340",
"K4 c #ff852a",
"L4 c #f54d64",
"M4 c #ffe045",
"N4 c #ff8123",
"O4 c #ff8122",
"P4 c #fe9343",
"Q4 c #f14d64",
"R4 c #ffe45e",
"S4 c #fe8326",
"T4 c #ff8020",
"U4 c #ff913d",
"V4 c #ffe257",
"W4 c #ff750e",
"X4 c #fa7e21",
"Y4 c #ff7f1f",
"Z4 c #ff8f3c",
"a4 c #fa7f22",
"b4 c #ff903d",
"c4 c #ffe461",
"d4 c #ffe049",
"e4 c #ffe251",
"f4 c #fe9544",
"g4 c #ffdf44",
"h4 c #ffdf43",
"i4 c #ffe35c",
"j4 c #ffde40",
"k4 c #ffe158",
"l4 c #ffe154",
"m4 c #ffe14f",
"n4 c #ffe04a",
"o4 c #ffe04d",
"p4 c #ffe361",
"q4 c #ffe25d",
"r4 c #ffde41",
"s4 c #ffde3f",
"t4 c #ffe14e",
"u4 c #ffe360",
"v4 c #ffe150",
"w4 c #ffe256",
"x4 c #ffe362",
"                                                                                                ",
"                                                                                                ",
"                                                            x4                                  ",
"                                                        x4w4v4                                  ",
"                                                      u4t4s4r4q4                                ",
"                                                    p4o4s4s4s4n4u4                              ",
"                                                    m4s4s4s4s4s4l4                              ",
"                                                  k4s4s4s4s4s4s4j4i4                            ",
"                                                q4h4s4s4s4s4s4s4s4g4u4                          ",
"                      f4                        e4s4s4s4s4s4s4s4s4s4d4c4                        ",
"                    b4a4                        g4s4s4s4s4s4s4s4s4s4s4v4                        ",
"                  Z4Y4X4      W4W4              s4s4s4s4s4s4s4s4s4s4s4s4V4                      ",
"                U4T4Y4S4    W4W4W4            d4s4s4s4s4s4s4s4s4s4s4s4s4r4R4  Q4                ",
"              P4O4Y4Y4N4  W4W4W4W4            M4s4s4s4s4s4s4s4s4s4s4s4s4s4g4u4  L4              ",
"              K4Y4Y4Y4Y4J4I4H4G4F4        E4D4C4B4A4;4:494s4s4s4s4s4s4s4s4s4o4  84              ",
"            74Y4Y4Y4Y4Y4T46454744434  24D4D4D4D4D4D4D4D41404s4s4s4s4s4s4s4s4s4V4z3y3            ",
"            x3Y4Y4Y4Y4Y4Y4Y4Y4Y4O4w3v3u3D4D4D4D4D4D4D4D4D4D4t3s3s4s4s4s4s4s4s4g4r384            ",
"          q3Y4Y4Y4Y4Y4Y4Y4Y4Y4Y4Y4Y4p3o3n3D4D4D4D4D4D4m3l3k3j3i3s4s4s4s4s4s4s4s4h3g3f3          ",
"          e3Y4Y4Y4Y4Y4Y4Y4Y4Y4Y4Y4Y4Y4d3c3b3a3D4D4D4D4D4Z3Y3X3W3V3s4s4s4s4s4s4s4U3T384          ",
"          Y4Y4Y4Y4S3R3Q3P3O3N3M3T4Y4Y4Y4T4L3K3J3I3D4D4D4D4H3G3X3F3E3s4s4s4s4s4s4D3C384          ",
"        B3Y4Y4Y4Y4A3X3X3X3X3X3X3;3:3938373635343D4D4D4D4D4D433F3X3X323s4s4s4s4s4130384z2        ",
"        y2Y4Y4Y4Y4x2w2X3X3X3X3X3X3X3X3X3X3v2u2t2D4D4D4D4D4D4D4s2X3X3r2q2s4s4s4s4p2o284n2        ",
"        m2Y4Y4Y4Y4Y4x2l2k2X3X3X3X3j2i2h2g2f2e2d2D4D4D4D4D4D4D4c2X3X3X3b2s4s4s4a2x3Z284Y2        ",
"        X2Y4Y4Y4Y4Y4Y4Y4W2V2X3X3U2T2e2S2R2d2D4D4D4D4D4D4D4D4D4Q2X3X3X3P2s4s4s4O2Y4N284y3        ",
"        M2Y4Y4Y4Y4Y4Y4Y4Y483X3L2K2d2D4D4D4D4D4D4D4D4D4D4D4D4D4D4J2X3X3I2s4s4H2q3Y4G284F2        ",
"        E2Y4Y4Y4Y4Y4Y4Y4Y4Y4D2C2D4D4D4D4D4D4D4D4D4D4D4D4D4D4D4B2A2X3X3;2s4s4:2x3Y4E28492        ",
"        82Y4Y4Y4Y4Y4Y4Y4Y4Y4N372D4D4D4D4D4D4D4D4D4D4D4D4D4D4D462X3X3X3I2s45242Y4Y4328422        ",
"        12Y4Y4Y4Y4Y4Y4Y4Y4Y402z1D4D4D4D4D4D4D4D4D4D4D4D4D4D4D4y1X3X3X3x1w1v1N4Y4Y4u184t1        ",
"        s1r1Y4Y4Y4Y4Y4Y4Y4Y4Y4q1p1D4D4D4D4D4D4D4D4D4D4D4D4D4B2o1X3X3X3n1m1K4Y4Y4r1l184k1        ",
"          j1Y4Y4Y4Y4Y4Y4Y4Y4Y473i1h1D4D4D4D4D4D4D4D4D4D4D4D4g1X3X3X3f1e1d1Y4Y4Y4c1b184          ",
"          a1Z1Y4Y4Y4Y4Y4Y4Y4Y4Y4Y1X1W1D4D4D4D4D4D4D4D4D4D4V1U1X3X3T1S1p3Y4Y4Y4R1Q184Y2          ",
"          P1O1Y4Y4Y4Y4Y4Y4Y4Y4Y4Y4d3N1M1I3D4D4D4D4D4D4L1K1U1X3J1I1H1G1Y4Y4Y4Y4F1y384E1          ",
"            D1C1Y4Y4Y4Y4Y4Y4Y4Y4Y4Y4N4B1A1;1:19181716151413121I411Y4Y4Y4Y4Y401D184b1            ",
"            z0y0x0Y4Y4Y4Y4Y4Y4Y4Y4Y4Y4Y4x3w0v0u0t0s0t0r0q0L3d3Y4Y4Y4Y4Y4Y4p0y08484z0            ",
"              f3o0n0Y4Y4Y4Y4Y4Y4Y4Y4Y4Y4Y4Y4Y4Y4Y4m0Y4Y4Y4Y4Y4Y4Y4Y4Y4Y4l0k0y384j0              ",
"              i0y3h0g0Y4Y4Y4Y4Y4Y4Y4Y4Y4Y4Y4Y4Y4Y4Y4Y4Y4Y4Y4Y4Y4Y4Y4Y4f0h0j08484e0              ",
"                d0y3c0b0a0Y4Y4Y4Y4Y4Y4Y4Y4Y4Y4Y4Y4Y4Y4Y4Y4Y4Y4Y4Y4a0b0Z0y38484Y0                ",
"                  X084W0V0U0Y4Y4Y4Y4Y4Y4Y4Y4Y4Y4Y4Y4Y4Y4Y4Y4Y4Y4U0T0W0848484S0                  ",
"                    X084Y2R0Q0P0O0Y4Y4Y4Y4Y4Y4Y4Y4Y4Y4Y4Y4O0N0Q0R0Y2848484M0                    ",
"                      z08484L0K0J0I0H0G0n0O0a0a0O0x0F0E0I0J0K0L084848484D0                      ",
"                        C0B0848484A0;0R0:0d0z0z0d0:0R0;0A08484848484B090                        ",
"                            8070848484848484848484848484848484847060                            ",
"                                50L08484848484848484848484844030                                ",
"                                      2010D100b1b100D11020                                      ",
"                                                                                                ",
"                                                                                                ",
"                                                                                                ",
"                                                                                                "};
