/* XPM */
static char *image[] = {
"48 48 21 1",
"  c None",
"0 c #24384f",
"1 c #24384e",
"2 c #1973c2",
"3 c #c9ddee",
"4 c #caddee",
"5 c #234b73",
"6 c #253951",
"7 c #244b73",
"8 c #186db7",
"9 c #186fbb",
": c #eef4fa",
"; c #eef6fd",
"A c #ffffff",
"B c #eff7fd",
"C c #2d90e6",
"D c #1e88e5",
"E c #2189e5",
"F c #2d90e7",
"G c #3494e8",
"H c #3493e8",
"                                                ",
"                                                ",
"                                                ",
"                                                ",
"                                                ",
"                                                ",
"     HGGGGGGGGGGGGGGGGGGGGGGGGGGGGGGGGGGGGG     ",
"    FEDDDDDDDDDDDDDDDDDDDDDDDDDDDDDDDDDDDDEC    ",
"    EDDDDDDDDDDDDDDDDDDDDDDDDDDDDDDDDDDDDDDE    ",
"    DDDBAA;DDDDDDDDDDDDDDDDDDDDDDDDDDDDDDDDD    ",
"    DDDAAAADDDDDDDDDDDDDDDDDDDDDDDDDDDDDDDDD    ",
"    DDDAAAADDDDDDDDDDDDDDDDDDDDDDDDDDDDDDDDD    ",
"    DDD:AA:DDDDDDDDDDDDDDDDDDDDDDDDDDDDDDDDD    ",
"    DDD9889DDDDDDDDDDDDDDDDDDDDDDDDDDDDDDDDD    ",
"    DDDDDDDDDDDDDDDDDDDDDDDDDDDDDDDDDDDDDDDD    ",
"    DDDBAA;DDDDDDDDDDDDDDDDDDDDDDDDDDDDDDDDD    ",
"    DDDAAAADDDDDDDDDDDDDDDDDDDDDDDDDDDDDDDDD    ",
"    DDDAAAADDDDDDDDDDDDDDDDDDDDDDDDDDDDDDDDD    ",
"    DDD:AA:DDDDD7666666666666665DDDDDDDDDDDD    ",
"    DDD9889DDDDD6666666666666666DDDDDDDDDDDD    ",
"    DDDDDDDDDDDDAAAAAAAAAAAAAAAADDDDDDDDDDDD    ",
"    DDDBAA;DDDDDAAAAAAAAAAAAAAAADDDDDDDDDDDD    ",
"    DDDAAAADDDDDAAAAAAAAAAAAAAAADDDDDDDDDDDD    ",
"    DDDAAAADDDDDAAAAAAAAAAAAAAAADDDDDDDDDDDD    ",
"    DDD:AA:DDDDDAAAAAAAAAAAAAAAADDDDDDDDDDDD    ",
"    DDD9889DDDDDAAAAAAAAAAAAAAAADDDDDDDDDDDD    ",
"    DDDDDDDDDDDDAAAAAAAAAAAAAAAADDDDDDDDDDDD    ",
"    DDDBAA;DDDDDAAAAAAAAAAAAAAAADDDDDDDDDDDD    ",
"    DDDAAAADDDDDAAAAAAAAAAAAAAAADDDDDDDDDDDD    ",
"    DDDAAAADDDDD4AAAAAAAAAAAAAA3DDDDDDDDDDDD    ",
"    DDD:AA:DDDDD2888888888888882DDDDDDDDDDDD    ",
"    DDD9889DDDDDDDDDDDDDDDDDDDDDDDDDDDDDDDDD    ",
"    DDDDDDDDDDDDDDDDDDDDDDDDDDDDDDDDDDDDDDDD    ",
"    DDDDDDDDDDDDDDDDDDDDDDDDDDDDDDDDDDDDDDDD    ",
"    DDDDDDDDDDDDDDDDDDDDDDDDDDDDDDDDDDDDDDDD    ",
"    DDDDDDDDDDDDDDDDDDDDDDDDDDDDDDDDDDDDDDDD    ",
"    DDDDDDDDDDDDDDDDDDDDDDDDDDDDDDDDDDDDDDDD    ",
"    DDDDDDDDDDDDDDDDDDDDDDDDDDDDDDDDDDDDDDDD    ",
"    6666666666666666666666666666666666666666    ",
"    6666666666666666666666666666666666666666    ",
"    1666666666666666666666666666666666666660    ",
"     16666666666666666666666666666666666660     ",
"                                                ",
"                                                ",
"                                                ",
"                                                ",
"                                                ",
"                                                "};
