/* XPM */
static char *image[] = {
"48 48 36 1",
"  c None",
"0 c #8a8a8a",
"1 c #727272",
"2 c #787878",
"3 c #cfcfcf",
"4 c #d5d5d5",
"5 c #ececec",
"6 c #d6d6d6",
"7 c #8d8d8d",
"8 c #8c8c8c",
"9 c #8e8e8e",
": c #fece5c",
"; c #ffcd54",
"A c #ffcd55",
"B c #fece5b",
"C c #ecc35e",
"D c #ffd265",
"E c #fed064",
"F c #ecc15d",
"G c #7cca4f",
"H c #8de160",
"I c #89e058",
"J c #89e059",
"K c #8de15f",
"L c #88d361",
"M c #95e368",
"N c #93e168",
"O c #89d361",
"P c #4a85cc",
"Q c #5a99e4",
"R c #5294e2",
"S c #5394e2",
"T c #5a9ae3",
"U c #639ee5",
"V c #629ee4",
"W c #629ee6",
"                                                ",
"                                                ",
"                                                ",
"                                                ",
"          WVUUUUUUUUUUUUUUUUUUUUUUUUVU          ",
"          TSRRRRRRRRRRRRRRRRRRRRRRRRSQ          ",
"          SRRRRRRRRRRRRRRRRRRRRRRRRRRS          ",
"          PPPPPPPPPPPPPPPPPPPPPPPPPPPP          ",
"        ONMMMMMMMMMMMMMMMMMMMMMMMMMMMMNL        ",
"        KJIIIIIIIIIIIIIIIIIIIIIIIIIIIIJH        ",
"        JIIIIIIIIIIIIIIIIIIIIIIIIIIIIIIJ        ",
"        GGGGGGGGGGGGGGGGGGGGGGGGGGGGGGGG        ",
"      FEDDDDDDDDDDDDDDDDDDDDDDDDDDDDDDDDEC      ",
"      BA;;;;;;;;;;;;;;;;;;;;;;;;;;;;;;;;A:      ",
"      A;;;;;;;;;;;;;;;;;;;;;;;;;;;;;;;;;;A      ",
"      ;;;;;;;;;;;;;;;;;;;;;;;;;;;;;;;;;;;;      ",
"     99999999999999999999999999999999999999     ",
"    8999999999999999999999999999999999999997    ",
"    9999999999999999999999999999999999999999    ",
"    9999999999999999999999999999999999999999    ",
"    9999999999999999999999999999999999999999    ",
"    9999999999999999999999999999999999999999    ",
"    9999999999999999999999999999999999999999    ",
"    9999999999999999999999999999999999999999    ",
"    9999999999999999999999999999999999999999    ",
"    9999999999999999999999999999999999999999    ",
"    9999999999999999999999999999999999999999    ",
"    9999999999999655555555555549999999999999    ",
"    9999999999999555555555555559999999999999    ",
"    9999999999999555555555555559999999999999    ",
"    9999999999999355555555555539999999999999    ",
"    9999999999999211111111111129999999999999    ",
"    9999999999999999999999999999999999999999    ",
"    9999999999999999999999999999999999999999    ",
"    9999999999999999999999999999999999999999    ",
"    9999999999999999999999999999999999999999    ",
"    9999999999999999999999999999999999999999    ",
"    9999999999999999999999999999999999999999    ",
"    9999999999999999999999999999999999999999    ",
"    9999999999999999999999999999999999999999    ",
"    9999999999999999999999999999999999999999    ",
"    9999999999999999999999999999999999999999    ",
"    0999999999999999999999999999999999999990    ",
"     09999999999999999999999999999999999990     ",
"                                                ",
"                                                ",
"                                                ",
"                                                "};
